X: 362
T: The Honble Margaret Erskine's Reel
C: by J Pringle
B: John Pringle "Collection of Reels Strathspeys & Jigs", 1801 p.36#2
Z: 2011 John Chambers <jc:trillian.mit.edu>
R: reel
M: C|
L: 1/8
K: G
V: 1
(B/c/) |\
dgfe d2BG | cABG (GF)ED | dgfe d2BG | ABcA G2G :|
c |\
B>GdB FGAB | cdef gdcB | BGdB FGAB | cAGF G2Gc |
BGdG FGAB | cdef gbdB | (cB)cd ecAG | FDEF G2G |]
V: 2 clef=bass middle=d
z | g2g2 b2g2 | a2g2 d2d2 | g2g2 b2g2 | d2D2 G2G :|
z | g2b2 a2f2 | c2^c2 d2d2 | g2g2 d2d2 | A2d2 G2G2 |
    g2b2 a2f2 | e2c2 B2g2 | e2d2 c2^c2 | d2D2 G2G |]

%%sep 2 1 500

